X:548
T:BAdd548-  The Dissappointed Widow (Slow men of London)
S:(1st/2) Polly, 1729
Q:1/4=120
L:1/4
M:6/4
K:Dm
d|^c2de2d|^c2de3|f3e2d|^c3A2::F|F2Fc2B/c/|F2Fc3|\
d2A(BA)G|F3D3|F3/2E/Fc3/2d/c|F3/2G/Fc3|\
d2A(BA)G|F3D2:|]

